X:46
T:Concertion
Z: id:dc-reel-177
M:C
L:1/8
K:D Mixolydian
dB|A3B A2cA|GEE2 GED2|A3G ABcd|ecc2 decA|!
dcd|eaag egdg|!
efga bge^c|dedc AGEF|G2Bd gdBd|cAFA G3:|!